X:272
T:The Ballygow
C:Phil Murphy
Z:robin.beech@mcgill.ca
S:Nightingale - Sometimes when the moon is high
R:reel
M:4/4
L:1/8
K:Amaj
EFAB c3c- | cBAc BAFA |EFAB c2cd |1 ecAc BAFA :|2 ecAc B2A2||
afef c3c- | cBAc BAFA | afef c3c- | cBAc B4 |
aee2 fcc2 | e2cA BAFA | EFAB c2cd | ecAc B2A2 ||
